lib/functional/commerce/coin.svg

<svg xmlns="http://www.w3.org/2000/svg" fill="none" stroke="currentColor" aria-hidden="true" viewBox="0 0 32 32"><g id="Icon-Coin"><g clip-path="url(#clip0_12_6740)"><g id="size=md (32px)"><g id="Coin"><path id="Vector" stroke-linecap="round" stroke-linejoin="round" stroke-width="2" d="M16 19C23.1797 19 29 16.3137 29 13C29 9.68629 23.1797 7 16 7C8.8203 7 3 9.68629 3 13C3 16.3137 8.8203 19 16 19Z"/><path id="Vector_2" stroke-linecap="round" stroke-linejoin="round" stroke-width="2" d="M16 19V25"/><path id="Vector_3" stroke-linecap="round" stroke-linejoin="round" stroke-width="2" d="M3 13V19C3 22 8 25 16 25C24 25 29 22 29 19V13"/><path id="Vector_4" stroke-linecap="round" stroke-linejoin="round" stroke-width="2" d="M24 17.7625V23.7625"/><path id="Vector_5" stroke-linecap="round" stroke-linejoin="round" stroke-width="2" d="M8 17.7625V23.7625"/></g></g></g></g><defs><clipPath id="clip0_12_6740"><rect width="32" height="32" fill="white" rx="5"/></clipPath></defs></svg>

<svg xmlns="http://www.w3.org/2000/svg" fill="none" stroke="currentColor" aria-hidden="true" viewBox="0 0 32 32"><g stroke="#101828" stroke-linecap="round" stroke-linejoin="round" stroke-width="2" clip-path="url(#a)"><path d="M16 19c7.18 0 13-2.686 13-6s-5.82-6-13-6S3 9.686 3 13s5.82 6 13 6Zm0 0v6"/><path d="M3 13v6c0 3 5 6 13 6s13-3 13-6v-6m-5 4.762v6m-16-6v6"/></g><defs><clipPath id="a"><rect width="32" height="32" fill="#fff" rx="5"/></clipPath></defs></svg>
